X:1
T: Mrs. Ramsay of Barton
C:
R:Strathspey
Q: 128
K:Em
M:4/4
L:1/16
|:F2|E3F G3A Be3 e4|d3B A3G FD3 D3F|E3G F3A Ge3 e3f|g3e B3^d eee2 e3f|
g3e f3^d eB3 B3^c|d3B A3G FD3 D3F|EG3 F3A GB3 e3g|fd3 a3f ge3 e3f|
g3e f3^d eB3 B3^c|d3B A3G FD3 D3f|g3e f3^d eB3 B3e|B3e ^d3f eee2 e3f|
g3e B3g f^d3 e3^c|d3B Ad3 F3D A3F|EG3 F3A GB3 e3g|bB3 g3f e4 e2:|
